!!!COM: Mozart, Wolfgang Amadeus
!!!CDT: 1756/01/27/-1791/12/05/
!!!CNT: German
!!!OTL: Piano Sonata No. 14 in C minor
!!!SCT1: K<sup>1</sup> 310
!!!SCT2: K<sup>6</sup> 300d
!!!OMV: Mvmt. 1
!!!OMD: Allegro
!!!ODT: 1784///
**kern	**kern	**dynam
*staff2	*staff1	*staff1/2
*>[A,A,B,B,C]	*>[A,A,B,B,C]	*>[A,A,B,B,C]
*>norep[A,B,C]	*>norep[A,B,C]	*>norep[A,B,C]
*>A	*>A	*>A
*clefF4	*clefG2	*clefG2
*k[b-e-a-]	*k[b-e-a-]	*k[b-e-a-]
*c:	*c:	*c:
*M4/4	*M4/4	*M4/4
*met(c)	*met(c)	*met(c)
*MM180	*MM180	*MM180
=1-	=1-	=1-
2CC/ 2C/	2c/	f
4EE-'/ 4E-'/	4e-'/	.
4GG'/ 4G'/	4g'/	.
=2	=2	=2
4C'\ 4c'\	4cc'\	.
4E-'\ 4e-'\	4ee-'\	.
2r	8r	.
.	16r	.
.	16ee-\	p
.	(8ee-\L	.
.	16dd\L	.
.	16ee-\JJ	.
*clefG2	*	*
=3	=3	=3
4r	4gg\	.
4e-/ 4g/	4cc\)	.
4e-/ 4g/	4cc\	.
4e-/ 4g/	4cc\	.
=4	=4	=4
4r	(4aa-\	.
4d/ 4f/ 4a-/	4bn\)	.
4d/ 4f/ 4a-/	4b\	.
4r	4r	.
*clefF4	*	*
=5	=5	=5
2GGG/ 2GG/	2G/	f
4BBBn'/ 4BBn'/	4Bn'/	.
4DD'/ 4D'/	4d'/	.
=6	=6	=6
4GG'/ 4G'/	4g'/	.
4BBn'\ 4Bn'\	4bn'\	.
2r	8r	.
.	16r	.
.	16dd\	p
.	(8dd\L	.
.	16cc\L	.
.	16dd\JJ	.
*clefG2	*	*
=7	=7	=7
4r	4ff\	.
4d/ 4f/ 4a-/	4bn\)	.
4d/ 4f/ 4a-/	4b\	.
4d/ 4f/ 4a-/	4b\	.
=8	=8	=8
4r	(4gg\	.
4e-/ 4g/	4cc\)	.
4e-/ 4g/	4cc\	.
4r	4r	.
*clefF4	*	*
=9	=9	=9
*	*^	*
(8GG/L	2.g/	2.r	f
8G/	.	.	.
8GG/	.	.	.
8G/J	.	.	.
8GG/L	.	.	.
8G/	.	.	.
8GG/	[4ee-/	(4g\	p
8G/J	.	.	.
=10	=10	=10	=10
8GG/L	4ee-/]	4f#\	.
8G/	.	.	.
8GG/	2dd/	4fn\	.
8G/J	.	.	.
8GG/L	.	4en\	.
8G/	.	.	.
8GG/	[4cc/	4e-\	.
8G/J	.	.	.
=11	=11	=11	=11
8GG/L	(4cc/]	2d\)	f
8G/	.	.	.
8GG/	4bn/)	.	.
8G/J	.	.	.
8GG/L	4r	4r	.
8G/	.	.	.
8GG/	(4gg/	[4ee-\	p
8G/J	.	.	.
=12	=12	=12	=12
8GG/L	4ff#/	4ee-\]	.
8G/	.	.	.
8GG/	4ffn/	2dd\	.
8G/J	.	.	.
8GG/L	4een/	.	.
8G/	.	.	.
8GG/	4ee-/	[4cc\	.
8G/J	.	.	.
=13	=13	=13	=13
8GG/L	2dd/)	(4cc\]	f
8G/)	.	.	.
8G'/	.	4bn\)	.
8G'/J	.	.	.
(8FF/L	2r	4r	.
8F/)	.	.	.
8F'/	.	[4b\ [4dd\ [4aa-\	.
8F'/J	.	.	.
*	*v	*v	*
=14	=14	=14
(8EE-/L	4b\] 4dd\] (4aa-\]	.
8E-/)	.	.
8E-'/	4cc\ 4ee-\ 4gg\)	.
8E-'/J	.	.
(8BBBn/L	8r	.
8BBn/)	16r	.
.	(16g\LK	.
8BB'/	8.dd\	.
8BB'/J	.	.
.	16ff\Jk	.
=15	=15	=15
(8CC/L	16ee-\LL	.
.	16dd\	.
8C/)	16ee-\	.
.	16ff\JJ	.
8C'/	4gg\)	.
8C'/J	.	.
(8FF/L	4r	.
8F/)	.	.
8F'/	[4bn\ [4dd\ [4aa-\	.
8F'/J	.	.
=16	=16	=16
(8EE-/L	4b\] 4dd\] (4aa-\]	.
8E-/)	.	.
8E-'/	4cc\ 4ee-\ 4gg\)	.
8E-'/J	.	.
(8DD/L	8r	.
8D/)	16r	.
.	(16ff\LK	.
8D'/	8.bbn\	.
8D'/J	.	.
.	16fff\Jk	.
=17	=17	=17
4C/	8eee-\L	.
.	8gg\	p
4r	8ccc\)	.
.	8ee-\J	.
4F\	8r	.
.	(8ff\L	.
4r	8aa-\	.
.	8dd\J)	.
=18	=18	=18
4G\	8r	.
.	(8ee-\L	.
4r	8gg\	.
.	8cc\J)	.
4GG/	8r	.
.	(8dd\L	.
4r	8ff\	.
.	8bn\J)	.
*clefG2	*	*
=19	=19	=19
2c/	2cc\	f
4e-'/	4ee-'\	.
4g'/	4gg'\	.
=20	=20	=20
4cc'\	4ccc'\	.
4ee-'\	4eee-'\	.
2r	8r	.
.	16r	.
.	16ee-\	.
.	(8ee-\L	.
.	16dd\L	.
.	16ee-\JJ)	.
*clefF4	*	*
=21	=21	=21
2BBB-/ 2BB-/	(12aa-\L	.
.	12bb-\	.
.	12ccc\J	.
.	12bb-\L	.
.	12aa-\	.
.	12gg\J	.
4DD'/ 4D'/	12ff\L	.
.	12gg\	.
.	12aa-\J	.
4FF'/ 4F'/	12gg\L	.
.	12ff\	.
.	12ee-\J	.
=22	=22	=22
4BB-'\ 4B-'\	12dd\L	.
.	12ee-\	.
.	12ff\J	.
4D'\ 4d'\	12ee-\L	.
.	12dd\	.
.	12cc\J	.
2r	12b-\L	.
.	12cc\	.
.	12b-\J	.
.	12a-/L	.
.	12b-/	.
.	12a-/J	.
=23	=23	=23
(8E-\L	4.g/	p
8B-\	.	.
8G\	.	.
8B-\J	32a-/LLL	.
.	32g/	.
.	32f/	.
.	32g/JJJ	.
8F\L	4a-/	.
8B-\	.	.
8A-\	4d/	.
8B-\J	.	.
=24	=24	=24
8G\L	8e-'/L)	.
8B-\	8g'/J	.
8E-\	(4.b-/	.
8B-\J	.	.
8D\L	.	.
8B-\	8an/L	.
8BB-\	8a-/	.
8B-\J	8f#/J	.
=25	=25	=25
8E-\L	4.g/	.
8B-\	.	.
8G\	.	.
8B-\J	32a-/LLL	.
.	32g/	.
.	32fn/	.
.	32g/JJJ	.
8F\L	4a-/	.
8B-\	.	.
8A-\	4d/	.
8B-\J	.	.
=26	=26	=26
8G\L	8e-/L)	.
8B-\	8ee-/	.
8E-\	(8dd/	.
8B-\J	8cc/J	.
8D\L	8b-/L	.
8B-\	8an/	.
8BB-\	8a-/	.
8B-\J	8f#/J	.
=27	=27	=27
8E-\L	4g/	.
8B-\	.	.
8G\	4b-/)	.
8B-\J	.	.
8D\L	8r	.
8B-\	8b-\L	<
8F\	8b-\	.
8B-\J	8b-\J	.
=28	=28	=28
8C\L	(8ff\L	.
8B-\	8ee-\J	.
8G\	4ee-\)	.
8B-\J	.	.
8C\L	8r	.
8B-\	8ee-\L	.
8G\	8ee-\	.
8B-\J)	8ee-\J	.
=29	=29	=29
1C 1F 1An	(8ee-\L	f
.	16ff\L	.
.	16gg\JJ	.
.	8ff\L)	.
.	8ee-'\J	.
.	8dd'\L	.
.	8cc'\	.
.	8b-'\	.
.	8an'\J	.
=30	=30	=30
4r	(4cc\	.
4B-\ (4d\	4b-\)	p
4c-\ 4e-\)	4r	.
4r	8ee-\L	.
.	8ee-\J	.
=31	=31	=31
4r	4bb-\	.
4B-\ (4d\	4r	.
4c-\ 4e-\)	4r	.
4r	8ee-\L	.
.	8ee-\J	.
=32	=32	=32
4r	4bb-\	.
4B-\ (4d\	4r	.
4c-\ 4e-\)	4r	.
4r	8ee-\L	.
.	8ee-\J	.
=33	=33	=33
4B-\ (4d\	4bb-\	.
4c-\ 4e-\	8ee-\L	.
.	8ee-\J	.
4B-\ 4d\	4bb-\	.
4c-\ 4e-\	8ee-\L	.
.	8ee-\J	.
=34	=34	=34
4B-\ 4d\)	4bb-\	.
4r	(4bb-'\	.
2r	4bb-'\	.
.	4bb-'\)	.
=35	=35	=35
1r	(8bb-\L	.
.	8aan\	.
.	8aa-\	.
.	8ff\J	.
.	8bb-\L	.
.	8aan\	.
.	8aa-\	.
.	8ff\J	.
*clefG2	*	*
=36	=36	=36
(8g/L	4.ee-\	.
8b-/	.	.
8g/	.	.
8b-/J	16ff\LL	.
.	16ee-\JJ	.
8f/L	4dd\)	.
8b-/	.	.
8g/	4ee-\	.
8b-/J	.	.
=37	=37	=37
8g/L	(2een\	.
8b-/	.	.
8g/	.	.
8b-/J	.	.
8a-/L	4ff\)	.
8b-/	.	.
8a-/	4r	.
8b-/J	.	.
*	*clefF4	*clefF4
=38	=38	=38
8f/L	(4.A-\	.
8b-/	.	.
8f/	.	.
8b-/J	16G\LL	.
.	16A-\JJ	.
8f/L	8B-\L	.
8b-/	8A-\	.
8g/	8G\	.
8b-/J	8F\J	.
=39	=39	=39
8a-/L	2E-\	.
8b-/	.	.
8f/	.	.
8b-/J	.	.
8a-/L	4D\)	.
8b-/	.	.
8f/	4r	.
8b-/J	.	.
*	*clefG2	*clefG2
=40	=40	=40
8d/L	(4.ff\	.
8b-/	.	.
8d/	.	.
8b-/J	16gg\LL	.
.	16ff\JJ	.
8c/L	4ee-\)	.
8b-/	.	.
8d/	4ff\	.
8b-/J	.	.
=41	=41	=41
8d/L	(2ff#\	.
8b-/	.	.
8d/	.	.
8b-/J	.	.
8e-/L	4gg\)	.
8b-/	.	.
8e-/	4r	.
8b-/J	.	.
*	*clefF4	*clefF4
=42	=42	=42
8g/L	(4.B-\	.
8b-/	.	.
8e-/	.	.
8b-/J	16An\LL	.
.	16B-\JJ	.
8g/L	8c\L	.
8b-/	8B-\	.
8e-/	8A-\	.
8b-/J	8G\J	.
=43	=43	=43
8a-/L	2F\	.
8b-/	.	.
8a-/	.	.
8b-/J	.	.
8g/L	4E-\)	.
8b-/	.	.
8g/	4r	.
8b-/J)	.	.
*	*clefG2	*clefG2
=44	=44	=44
(8e-/L	2b-\ 2bb-\	f
8g/	.	.
8e-/	.	.
8g/J	.	.
8d-/L	2bn\ 2bbn\	.
8f/	.	.
8d-/	.	.
8f/J	.	.
=45	=45	=45
8c/L	4cc\ (4ccc\	.
8en/J)	.	.
4B-'/ 4e'/	4dd-\ 4ddd-\)	.
2r	2r	.
=46	=46	=46
4A-/ 4f/	8r	.
.	(8ccc\L	p
4r	8bb-\	.
.	8aa-\J	.
2r	8gg\L	.
.	8ff\	.
.	8gg\	.
.	8aa-\J	.
=47	=47	=47
*^	*^	*
4r	4r	2.r	2.ee-\	.
(4g/	2B-\	.	.	.
2a-/)	.	.	.	.
.	4Bn\	8gg/L	4dd\	.
.	.	8ff/J	.	.
*	*	*v	*v	*
=48	=48	=48	=48
4g/	4c\	4ee-\)	.
4r	2.r	8r	.
.	.	(8ee-\	.
2r	.	8dd\L	.
.	.	8dd-\	.
.	.	8cc\	.
.	.	8cc-\J	.
*v	*v	*	*
*clefF4	*	*
=49	=49	=49
(8E-\L	2b-\)	f
8G\	.	.
8E-\	.	.
8G\J	.	.
8D-\L	2Bn/ 2bn/	.
8F\	.	.
8D-\	.	.
8F\J	.	.
=50	=50	=50
8C\L	(4c/ 4cc/	.
8En\J)	.	.
4BB-'\ 4E'\	4d-/) 4dd-/	.
2r	2r	.
=51	=51	=51
1AA- 1C 1F	12cc/L	.
.	12ff/	.
.	12g/J	.
.	12a-/L	.
.	12cc/	.
.	12en/J	.
.	12f/L	.
.	12a-/	.
.	12Bn/J	.
.	12c/L	.
.	12f/	.
.	12G/J	.
=52	=52	=52
*^	*	*
12A-/L	1FFF 1FF	1r	.
12c/	.	.	.
12En/J	.	.	.
12F/L	.	.	.
12A-/	.	.	.
12BBn/J	.	.	.
12C/L	.	.	.
12F/	.	.	.
12GG/J	.	.	.
12AA-/L	.	.	.
12C/	.	.	.
12EEn/J	.	.	.
=53	=53	=53	=53
4.FF/	1r	1r	.
8CC/	.	.	.
8AA-/L	.	.	.
8FF/	.	.	.
8C/	.	.	.
8AA-/J	.	.	.
=54	=54	=54	=54
8F/L	1r	2r	.
8C/	.	.	.
8A-/	.	.	.
8F/J	.	.	.
2r	.	8c/L	.
.	.	8A-/	.
.	.	8f/	.
.	.	8c/J	.
*v	*v	*	*
=55	=55	=55
1r	8a-/L	.
.	8f/	.
.	8cc/	.
.	8a-/J	.
.	8ff\L	.
.	8cc\	.
.	8aa-\	.
.	8ff\J	.
=56	=56	=56
4r	4ccc\	.
4A-\ 4c\ 4f\	4r	.
4r	4eee-\	.
4An\ 4c\ 4g-\	4r	.
=57	=57	=57
4B-\ 4e-\ 4gn\	8r	.
.	(8b-\L	p
4r	8bb-\	.
.	8aan\J	.
2r	8aa-\L	.
.	8gg\	.
.	8gg-\	.
.	8ff\J)	.
*clefG2	*	*
=58	=58	=58
*^	*^	*
4r	4r	2.r	(8ff\L	.
.	.	.	8ee-\J)	.
(4g/	2.B-\	.	(2ee-\	.
2a-/)	.	.	.	.
.	.	8ggn/L	4dd\	.
.	.	8ff/J	.	.
*v	*v	*	*	*
*	*v	*v	*
=59	=59	=59
8e-/L	4ee-\)	.
8b-/	.	.
8g/	8r	.
8b-/J	(8ee-\	.
8d/L	8een\L	.
8b-/	8ff\J)	.
8a-/	8r	.
8b-/J	(8ff\	.
=60	=60	=60
8e-/L	8ff#\L	.
8b-/	8gg\J)	.
8g/	8r	.
8b-/J	(8gg\	.
8F/L	8bb-\L	.
8d/	8aa-\J)	.
8A-/	8r	.
8d/J	(8aa-\	.
=61	=61	=61
8G/L	8aan\L	.
8e-/	(8bb-\J)	.
8B-/	8r	.
8e-/J	8bb-\	.
8A-/L	8bbn\L	.
8e-/	8ccc\J)	.
8c/	8r	.
8e-/J	8eee-\	.
=62	=62	=62
8B-/L	(8eee-\L	.
8g/	8ee-\J)	.
8e-/	(2ee-\	.
8g/J	.	.
8B-/L	.	.
8a-/	.	.
8d/	8gg\L	.
8a-/J	8ff\J	.
*clefF4	*	*
=63	=63	=63
8E-\L	8ee-'\L)	f
8B-\	8ee-'\J	.
8G\	(8ee-\L	.
8B-\J	16dd\L	.
.	16ee-\JJ	.
8D\L	8ff'\L)	.
8B-\	8ff'\J	.
8A-\	(8ff\L	.
8B-\J	16ee-\L	.
.	16ff\JJ	.
=64	=64	=64
8E-\L	8gg'\L)	.
8B-\	8gg'\J	.
8G\	(8gg\L	.
8B-\J	16ff\L	.
.	16gg\JJ	.
8F\L	8aa-'\L)	.
8d\	8aa-'\J	.
8B-\	(8aa-\L	.
8d\J	16gg\L	.
.	16aa-\JJ	.
=65	=65	=65
4G\ 4B-\ 4e-\	12bb-\L	.
.	12ccc\	.
.	12ddd\J	.
4r	12eee-\L	.
.	12ddd\	.
.	12ccc\J	.
2r	12bb-\L	.
.	12aa-\	.
.	12gg\J	.
.	12ff\L	.
.	12ee-\	.
.	12dd\J	.
=66	=66	=66
4r	4cc\)	.
4A-\	4ee-\ 4aa-\ 4ccc\	.
4B-\	4ee-\ 4gg\ 4bb-\	.
4BB-/	4f\ 4a-\ 4dd\	.
=67	=67	=67
4E-\	4g\ 4ee-\	.
4r	(12bb-\L	.
.	12aa-\	.
.	12gg\J	.
4r	12ff\L	.
.	12ee-\	.
.	12dd\J	.
*clefG2	*	*
4e-/ 4g/	12ee-\L	.
.	12dd-\	.
.	12bn\J	.
=68	=68	=68
4e-/ 4a-/	4cc\)	.
4r	(12ccc\L	.
.	12bb-\	.
.	12aa-\J	.
4r	12gg\L	.
.	12ff\	.
.	12ee-\J	.
4e-/ 4f/ 4a-/	12ddn\L	.
.	12aa-\	.
.	12ff\J	.
=69	=69	=69
4e-/ 4g/	4ee-\)	.
4r	(12b-/L	.
.	12a-/	.
.	12g/J	.
4r	12f/L	.
.	12e-/	.
.	12d/J	.
*clefF4	*	*
4E-\ 4G\	12e-/L	.
.	12d-/	.
.	12Bn/J	.
=70	=70	=70
4E-\ 4A-\	4c/)	.
4r	(12cc/L	.
.	12b-/	.
.	12a-/J	.
4r	12g/L	.
.	12f/	.
.	12e-/J	.
4E-\ 4F\ 4A-\	12dn/L	.
.	12a-/	.
.	12f/J	.
=71	=71	=71
4E-\ 4G\	2e-/)	.
4r	.	.
2r	4g'/	.
.	4b-'\	.
=72	=72	=72
2EE-/ 2E-/	4ee-'\	.
.	4gg'\	.
4GG'/ 4G'/	8r	.
.	16r	.
.	16gg\	.
4BB-'\ 4B-'\	(8gg\L	.
.	16ff\L	.
.	16gg\JJ	.
=73	=73	=73
4E-'\ 4e-'\	4bb-\	.
4G'\ 4g'\	4ee-\)	.
2r	4ee-\	.
.	4ee-\	.
=74	=74	=74
2.G\ 2.d\ 2.f\	(4aa-\	p
.	4bn\)	.
.	4b\	.
4r	4r	.
=75:|!|:	=75:|!|:	=75:|!|:
*>B	*>B	*>B
2CC/ 2C/	2c/	f
4EEn'/ 4En'/	4en'/	.
4GG'/ 4G'/	4g'/	.
=76	=76	=76
4C'\ 4c'\	4cc'\	.
4En'\ 4en'\	4een'\	.
2r	8r	.
.	16r	.
.	16gg\	.
.	(8gg\L	.
.	16ff\L	.
.	16gg\JJ)	.
=77	=77	=77
2BBB-/ 2BB-/	(12bb-\L	.
.	12ccc\	.
.	12ddd-\J	.
.	12ccc\L	.
.	12bb-\	.
.	12aa-\J	.
4EEn'/ 4En'/	12gg\L	.
.	12aa-\	.
.	12bb-\J	.
4GG'/ 4G'/	12aa-\L	.
.	12gg\	.
.	12ff\J	.
=78	=78	=78
4BB-'\ 4B-'\	12een\L	.
.	12gg\	.
.	12ee\J	.
4D-'\ 4d-'\	12dd-\L	.
.	12ee\	.
.	12dd-\J	.
2r	12b-\L	.
.	12dd-\	.
.	12b-\J	.
.	12g/L	.
.	12b-/	.
.	12g/J)	.
=79	=79	=79
8F\L	(4.a-/	p
(8c\	.	.
8A-\	.	.
8c\J	32b-/LLL	.
.	32a-/	.
.	32g/	.
.	32a-/JJJ	.
8G\L	4b-/	.
8c\	.	.
8B-\	4en/	.
8c\J	.	.
=80	=80	=80
8A-\L	8f'/L)	.
8c\	8a-'/J	.
8F\	(4.cc\	.
8c\J	.	.
8En\L	.	.
8c\	8bn\L	.
8C\	8b-\	.
8c\J	8g\J)	.
=81	=81	=81
8F\L	(4.a-/	.
8c\	.	.
8A-\	.	.
8c\J	32b-/LLL	.
.	32a-/	.
.	32g/	.
.	32a-/JJJ	.
8G\L	4b-/	.
8c\	.	.
8B-\	4en/	.
8c\J	.	.
=82	=82	=82
8A-\L	8f/L)	.
8c\	(8ff/	.
8F\	8ee-/	.
8c\J	8dd-/J	.
8En\L	8cc/L	.
8c\	8bn/	.
8C\	8b-/	.
8c\J)	8g/J	.
=83	=83	=83
(12F\L	2a-/)	f
12A-\	.	.
12c\J	.	.
12B-\L	.	.
12A-\	.	.
12G\J	.	.
12F\L	4cc'\	.
12A-\	.	.
12c\J	.	.
12B-\L	4ff'\	.
12A-\	.	.
12G\J	.	.
=84	=84	=84
12F\L	4aa-'\	.
12A-\	.	.
12c\J	.	.
12B-\L	4ccc'\	.
12A-\	.	.
12G\J	.	.
12F\L	2r	.
12G\	.	.
12F\J	.	.
12E-\L	.	.
12F\	.	.
12E-\J	.	.
=85	=85	=85
2DD/ 2D/)	(12ccc\L	.
.	12ddd\	.
.	12eee-\J	.
.	12ddd\L	.
.	12ccc\	.
.	12bb-\J	.
4FF#'/ 4F#'/	12aan\L	.
.	12bb-\	.
.	12ccc\J	.
4AAn'\ 4An'\	12bb-\L	.
.	12aa\	.
.	12gg\J	.
=86	=86	=86
4D'\ 4d'\	12ff#\L	.
.	12aan\	.
.	12ff#\J	.
4F#'\ 4f#'\	12ee-\L	.
.	12aa\	.
.	12ee-\J	.
2r	12dd\L	.
.	12aa\	.
.	12dd\J	.
.	12cc\L	.
.	12aa\	.
.	12cc\J	.
=87	=87	=87
(12G\L	2b-\)	.
12B-\	.	.
12d\J	.	.
12c\L	.	.
12B-\	.	.
12An\J	.	.
12G\L	4dd'\	.
12B-\	.	.
12d\J	.	.
12c\L	4gg'\	.
12B-\	.	.
12A\J	.	.
=88	=88	=88
12G\L	4bb-'\	.
12B-\	.	.
12d\J	.	.
12c\L	4ddd'\	.
12B-\	.	.
12An\J	.	.
12G\L	2r	.
12B-\	.	.
12d\J	.	.
12G\L	.	.
12B-\	.	.
12d\J	.	.
=89	=89	=89
12Fn\L	2bn\	.
12Bn\	.	.
12d\J	.	.
12G\L	.	.
12B\	.	.
12d\J	.	.
12A-\L	4dd'\	.
12B\	.	.
12d\J	.	.
12G\L	4ff'\	.
12B\	.	.
12d\J	.	.
=90	=90	=90
12F\L	4bbn'\	.
12Bn\	.	.
12d\J	.	.
12G\L	4ddd'\	.
12B\	.	.
12d\J	.	.
12A-\L	2r	.
12B\	.	.
12d\J	.	.
12F\L	.	.
12B\	.	.
12d\J	.	.
=91	=91	=91
12E-\L	2cc\	.
12G\	.	.
12c\J	.	.
12F\L	.	.
12A-\	.	.
12c\J	.	.
12E-\L	4ee-'\	.
12G\	.	.
12c\J	.	.
12D\L	4gg'\	.
12F\	.	.
12c\J	.	.
=92	=92	=92
12E-\L	4ccc'\	.
12G\	.	.
12c\J	.	.
12D\L	4eee-'\	.
12F\	.	.
12c\J	.	.
12E-\L	2r	.
12G\	.	.
12c\J	.	.
12C\L	.	.
12E-\	.	.
12G\J	.	.
=93	=93	=93
12BBn\L	2d/ 2dd/	.
12D\	.	.
12G\J	.	.
12C\L	.	.
12D\	.	.
12G\J	.	.
12BB\L	4f'\ 4ff'\	.
12D\	.	.
12G\J	.	.
12AAn\L	4g'\ 4gg'\	.
12D\	.	.
12G\J	.	.
=94	=94	=94
12BBn\L	4dd'\ 4ddd'\	.
12D\	.	.
12G\J	.	.
4GG/)	4ff'\ 4fff'\	.
2r	2r	.
*clefG2	*	*
=95	=95	=95
2r	4ff'\	p
.	4aa-'\	.
2d/ 2bn/	2r	.
=96	=96	=96
2r	4dd'\	.
.	4ff'\	.
2Bn/ 2a-/	2r	.
=97	=97	=97
1r	4bn'\	.
.	4dd'\	.
.	4d'/	.
.	4f'/	.
*clefF4	*clefF4	*clefF4
=98	=98	=98
[1BBBn [1BBn	[1D [1F (1A-	pp
=99	=99	=99
4BBB/] 4BB/]	4D\] 4F\] 4G\)	.
4r	4r	.
2r	2r	.
*	*clefG2	*clefG2
=100	=100	=100
2CC/ 2C/	2c/	f
4EE-'/ 4E-'/	4e-'/	.
4GG'/ 4G'/	4g'/	.
=101	=101	=101
4C'\ 4c'\	4cc'\	.
4E-'\ 4e-'\	4ee-'\	.
2r	8r	.
.	16r	.
.	16ee-\	p
.	(8ee-\L	.
.	16dd\L	.
.	16ee-\JJ	.
*clefG2	*	*
=102	=102	=102
4r	4gg\	.
4e-/ 4g/	4cc\)	.
4e-/ 4g/	4cc\	.
4e-/ 4g/	4cc\	.
=103	=103	=103
4r	(4aa-\	.
4d/ 4f/ 4a-/	4bn\)	.
4d/ 4f/ 4a-/	4b\	.
4r	4r	.
*clefF4	*	*
=104	=104	=104
2GGG/ 2GG/	2G/	f
4BBBn'/ 4BBn'/	4Bn'/	.
4DD'/ 4D'/	4d'/	.
=105	=105	=105
4GG'\ 4G'\	4g'/	.
4BBn'\ 4Bn'\	4bn'\	.
2r	8r	.
.	16r	.
.	16dd\	p
.	(8dd\L	.
.	16cc\L	.
.	16dd\JJ	.
*clefG2	*	*
=106	=106	=106
4r	4ff\	.
4d/ 4f/ 4a-/	4bn\)	.
4d/ 4f/ 4a-/	4b\	.
4d/ 4f/ 4a-/	4b\	.
=107	=107	=107
4r	(4gg\	.
4e-/ 4g/	4cc\)	.
4e-/ 4g/	4cc\	.
4r	4r	.
*clefF4	*	*
=108	=108	=108
*	*^	*
8GG/L	2.g/	2.r	f
8G/	.	.	.
(8GG/	.	.	.
8G/J	.	.	.
8GG/L	.	.	.
8G/	.	.	.
8GG/	[4ee-/	(4g\	p
8G/J	.	.	.
=109	=109	=109	=109
8GG/L	4ee-/]	4f#\	.
8G/	.	.	.
8GG/	2dd/	4fn\	.
8G/J	.	.	.
8GG/L	.	4en\	.
8G/	.	.	.
8GG/	[4cc/	4e-\	.
8G/J	.	.	.
=110	=110	=110	=110
8GG/L	(4cc/]	2d\)	f
8G/	.	.	.
8GG/	4bn/)	.	.
8G/J	.	.	.
8GG/L	4r	4r	.
8G/	.	.	.
8GG/	(4gg/	[4ee-\	p
8G/J	.	.	.
=111	=111	=111	=111
8GG/L	4ff#/	4ee-\]	.
8G/	.	.	.
8GG/	4ffn/	2dd\	.
8G/J	.	.	.
8GG/L	4een/	.	.
8G/	.	.	.
8GG/	4ee-/	4cc\	.
8G/J	.	.	.
=112	=112	=112	=112
8GG/L	2dd/	(4cc\)	f
8G/)	.	.	.
8G'/	.	4bn\)	.
8G'/J	.	.	.
(8FF/L	2r	4r	.
8F/)	.	.	.
8F'/	.	[4b\ [4dd\ [4aa-\	.
8F'/J	.	.	.
*	*v	*v	*
=113	=113	=113
(8EE-/L	4b\] 4dd\] (4aa-\]	.
8E-/	.	.
8E-'/)	4cc\ 4ee-\ 4gg\)	.
8E-'/J	.	.
(8BBBn/L	8r	.
8BBn/)	16r	.
.	(16g\LK	.
8BB'/	8.dd\	.
8BB'/J	.	.
.	16ff\Jk	.
=114	=114	=114
(8CC/L	16ee-\LL	.
.	16dd\	.
8C/)	16ee-\	.
.	16ff\JJ	.
8C'/	4gg\)	.
8C'/J	.	.
(8FF/L	4r	.
8F/)	.	.
8F'/	[4bn\ [4dd\ [4aa-\	.
8F'/J	.	.
=115	=115	=115
(8EE-/L	4b\] 4dd\] (4aa-\]	.
8E-/	.	.
8E-'/)	4cc\ 4ee-\ 4gg\)	.
8E-'/J	.	.
(8DD/L	8r	.
8D/	16r	.
.	(16ff\LK	.
8D'/)	8.bbn\	.
8D'/J	.	.
.	16fff\Jk	.
=116	=116	=116
4C/	8eee-\L	.
.	8gg\	p
4r	8ccc\	.
.	8ee-\J)	.
4F\	8r	.
.	(8ff\L	.
4r	8aa-\	.
.	8dd\J)	.
=117	=117	=117
4G\	8r	.
.	(8ee-\L	.
4r	8gg\	.
.	8cc\J)	.
4GG/	8r	.
.	(8dd\L	.
4r	8ff\	.
.	8bn\J)	.
=118	=118	=118
2r	2cc\	f
2c\	4ee-'\	.
.	4gg'\	.
=119	=119	=119
4e-'\	4ccc'\	.
4g'\	4eee-'\	.
2AAA-/ 2AA-/	4cc'\ 4aa-'\	.
.	4ee-'\ 4ccc'\	.
=120	=120	=120
4CC'/ 4C'/	4a-'\ 4ff'\	.
4FF'/ 4F'/	4cc'\ 4aa-'\	.
2AA-\ 2A-\	4f'\ 4dd-'\	.
.	4a-'\ 4ff'\	.
*clefG2	*	*
=121	=121	=121
8r	(2.cc\	p
(8g-/L	.	.
8e-/	.	.
8g-/J	.	.
8A-/L	.	.
8g-/	.	.
8e-/	4aa-\)	.
8g-/J	.	.
=122	=122	=122
8A-/L	(4.aa-\	.
8f/	.	.
8d-/	.	.
8f/J	8ff\	.
8A-/L	4dd-\)	.
8f/	.	.
8d-/	4r	.
8f/J	.	.
=123	=123	=123
8A-/L	[2cc\	.
8g-/	.	.
8e-/	.	.
8g-/J	.	.
8A-/L	(8cc\L]	.
8g-/	8aa-\	.
8e-/	8bb-\	.
8g-/J	8aa-\J)	.
=124	=124	=124
8A-/L	(4.aa-\	.
8f/	.	.
8d-/	.	.
8f/J	8ff\	.
8A-/L	4dd-\)	.
8f/	.	.
8d-/	(4dd-\	.
8f/J)	.	.
=125	=125	=125
1An 1c 1e- 1f#	(8dd-\L)	.
.	8bn\	.
.	8cc\	.
.	8ddn\J	.
.	8ff\L	.
.	8ee-\	.
.	8dd\	.
.	8cc\J)	.
*clefF4	*	*
=126	=126	=126
4r	4gg\	.
4G\ (4Bn\	4r	.
4A-\ 4c\)	4r	.
4r	8cc\L	.
.	8cc\J	.
=127	=127	=127
4r	4gg\	.
4G\ (4Bn\	4r	.
4A-\ 4c\)	4r	.
4r	8cc\L	.
.	8cc\J	.
=128	=128	=128
4G\ (4Bn\	4gg\	.
4A-\ 4c\	8cc\L	.
.	8cc\J	.
4G\ 4B\	4gg\	.
4A-\ 4c\	8cc\L	.
.	8cc\J	.
=129	=129	=129
4G\ 4B-\)	4gg\	.
4r	(4gg'\	.
2r	4gg'\	.
.	4gg'\)	.
=130	=130	=130
1r	(8gg\L	.
.	8ff#\	.
.	8ffn\	.
.	8dd\J	.
.	8gg\L	.
.	8ff#\	.
.	8ffn\	.
.	8dd\J	.
*clefG2	*	*
=131	=131	=131
(8e-/L	4.cc\	.
8g/	.	.
8e-/	.	.
8g/J	16dd\LL	.
.	16cc\JJ	.
8d/L	4bn\)	.
8g/	.	.
8e-/	4cc\	.
8g/J	.	.
=132	=132	=132
8e-/L	(2cc#\	.
8g/	.	.
8e-/	.	.
8g/J	.	.
8f/L	4dd\)	.
8g/	.	.
8f/	4r	.
8g/J	.	.
*	*clefF4	*clefF4
=133	=133	=133
8d/L	(4.F\	.
8g/	.	.
8d/	.	.
8g/J	16En\LL	.
.	16F\JJ	.
8d/L	8G\L	.
8g/	8F\	.
8e-/	8E-\	.
8g/J	8D\J	.
=134	=134	=134
8f/L	2C/	.
8g/	.	.
8d/	.	.
8g/J	.	.
8f/L	4BBn/)	.
8g/	.	.
8d/	4r	.
8g/J)	.	.
*	*clefG2	*clefG2
=135	=135	=135
(8Bn/L	(4.dd\	.
8g/	.	.
8B/	.	.
8g/J	32ee-\LLL	.
.	32dd\	.
.	32cc\	.
.	32dd\JJJ	.
8c/L	4ee-\)	.
8g/	.	.
8d/	4ff\	.
8g/J	.	.
=136	=136	=136
8d/L	(2ff#\	.
8g/	.	.
8d/	.	.
8g/J	.	.
8e-/L	4gg\)	.
8g/	.	.
8e-/	4r	.
8g/J	.	.
*	*clefF4	*clefF4
=137	=137	=137
8e-/L	(4.G\	.
8g/	.	.
8c/	.	.
8g/J	16F#\LL	.
.	16G\JJ	.
8e-/L	8A-\L	.
8g/	8G\	.
8c/	8Fn\	.
8g/J	8E-\J	.
=138	=138	=138
8f/L	2D\	.
8g/	.	.
8f/	.	.
8g/J	.	.
8e-/L	4C/)	.
8g/	.	.
8e-/	4r	.
8g/J)	.	.
*	*clefG2	*clefG2
=139	=139	=139
*^	*	*
(8e-/L	4c\	2cc\ 2ccc\	f
8g/	.	.	.
8e-/	4c\	.	.
8g/J	.	.	.
8en/L	4B-\	2dd-\ 2ddd-\	.
8g/	.	.	.
8e/	4B-\	.	.
8g/J	.	.	.
=140	=140	=140	=140
8c/L	4An\	4cc\ 4ccc\	.
8f/J)	.	.	.
4c/ 4f#/	4A\	4ee-\ 4eee-\	.
2r	2r	8r	.
.	.	(8eee-\L	p
.	.	8dddn\	.
.	.	8ccc\J	.
*v	*v	*	*
*clefF4	*	*
=141	=141	=141
4r	8bbn\L	.
.	8ddd\J)	.
4G\ (4Bn\	4ff\	.
4B\ 4d\)	8r	.
.	(8aa-\L	.
4r	8gg\	.
.	8ff\J	.
=142	=142	=142
4r	8een\L	.
.	8gg\J)	.
4C\ (4En\	4b-\	.
4E\ 4G\)	8r	.
.	(8dd-\L	.
4r	8cc\	.
.	8b-\J	.
=143	=143	=143
4F\	8a-'\L)	.
.	(8aa-\	.
4r	8gg\	.
.	8ff\J	.
2r	8ee-\L	.
.	8dd\	.
.	8ee-\	.
.	8ff\J)	.
=144	=144	=144
*^	*^	*
4r	1G	(2.cc/	2.r	.
2d/ 2f/)	.	.	.	.
4e-/ (4g/	.	8ee-/L	4bn\	.
.	.	8dd/J)	.	.
*	*	*v	*v	*
=145	=145	=145	=145
8E-/L	4C\	2c/ 2cc/	f
(8G/	.	.	.
8E-/	4C\	.	.
8G/J	.	.	.
8En/L	4BB-\	2d-/ 2dd-/	.
8G/	.	.	.
8E/	4BB-\	.	.
8G/J	.	.	.
=146	=146	=146	=146
8C/L	4AAn\	4c/ 4cc/	.
8F/J	.	.	.
4C/ 4F#/)	4AA-\	4e-/ 4ee-/	.
2r	2r	8r	.
.	.	(8ee-\L	p
.	.	8ddn\	.
.	.	8cc\J	.
*v	*v	*	*
=147	=147	=147
4r	8bn\L	.
.	8dd\J)	.
(4GG/ 4BBn/	4f/	.
4BB/) 4D/	8r	.
.	(8a-/L	.
4r	8g/	.
.	8f/J	.
=148	=148	=148
4r	8en/L	.
.	8g/J)	.
(4CC/ 4EEn/	4B-/	.
4EE/) 4GG/	8r	.
.	8d-/L	.
4r	8c/	.
.	8B-/J	f
=149	=149	=149
*^	*	*
12A-/L	1FFF 1FF	1r	.
(12c'/	.	.	.
12En/J	.	.	.
12F/L	.	.	.
12A-/	.	.	.
12BBn/J	.	.	.
12C/L	.	.	.
12F/	.	.	.
12GG/J	.	.	.
12AA-/L	.	.	.
12C/	.	.	.
12EEn/J	.	.	.
=150	=150	=150	=150
12FF/L	1r	1r	.
12CC/	.	.	.
12FF/J	.	.	.
12AA-/L	.	.	.
12FF/	.	.	.
12AA-/J	.	.	.
12C/L	.	.	.
12AA-/	.	.	.
12C/J	.	.	.
12F/L	.	.	.
12C/	.	.	.
12F/J)	.	.	.
=151	=151	=151	=151
12A-/L	1r	2r	.
12F/	.	.	.
12A-/J	.	.	.
12c/L	.	.	.
12A-/	.	.	.
12c/J	.	.	.
2r	.	12f/L	.
.	.	12c/	.
.	.	12f/J	.
.	.	12a-/L	.
.	.	12f/	.
.	.	12a-/J	.
*v	*v	*	*
=152	=152	=152
1r	12cc\L	.
.	12a-\	.
.	12cc\J	.
.	12ff\L	.
.	12cc\	.
.	12ff\J	.
.	12aa-\L	.
.	12ff\	.
.	12aa-\J	.
.	8ccc\L	.
.	8gg\J	p
=153	=153	=153
1r	8aa-\L	.
.	8een\	.
.	8ff\	.
.	8cc#\J	.
.	8dd\L	.
.	8aa-\	.
.	8ff\	.
.	8dd\J	.
=154	=154	=154
4G\ 4c\ 4e-\	8r	.
.	(8g\L	.
4r	8gg\	.
.	8ff#\J	.
2r	8ffn\L	.
.	8een\	.
.	8ee-\	.
.	8dd\J)	.
*clefG2	*	*
=155	=155	=155
*^	*^	*
(8e-/L	1G	2.r	(8dd\L	.
8g/	.	.	(8cc\J)	.
8e-/	.	.	2cc\	.
8g/J	.	.	.	.
8f/L	.	.	.	.
8g/	.	.	.	.
8f/	.	8ee-/L	4bn\	.
8g/J	.	8dd/J	.	.
*v	*v	*	*	*
*	*v	*v	*
=156	=156	=156
8c/L	4cc\)	.
8g/	.	.
8e-/	8r	.
8g/J	(8cc\	.
8Bn/L	8cc#\L	.
8g/	8dd\J)	.
8f/	8r	.
8g/J	8dd\	.
=157	=157	=157
8c/L	(8ff\L	.
8g/	8ee-\J)	.
8e-/	8r	.
8g/J	(8ee-\	.
*clefF4	*	*
8D\L	8een\L	.
8Bn\	8ff\J)	.
8F\	8r	.
8B\J	(8ff\	.
=158	=158	=158
8E-\L	8ff#\L	.
8c\	8gg\J)	.
8En\	8r	.
8c\J	(8gg\	.
8F\L	8bb-\L	.
8c\	8aa-\J)	.
8F\	8r	.
8e-\J	8ccc\	.
=159	=159	=159
8G\L	8ccc\L	.
8e-\	8cc\J	.
8c\	(2cc\	.
8e-\J	.	.
8G\L	.	.
8fn\	.	.
8Bn\	8ee-\L	.
8f\J)	8dd\J	.
=160	=160	=160
(8C\L	8cc'\L)	f
8G\	8cc'\J	.
8E-\	(8cc\L	.
8G\J	16bn\L	.
.	16cc\JJ	.
8BB-\L	8dd'\L)	.
8G\	8dd'\J	.
8F\	(8dd\L	.
8G\J	16cc\L	.
.	16dd\JJ	.
=161	=161	=161
8C\L	8ee-'\L)	.
8G\	8ee-'\J	.
8E-\	(8ee-\L	.
8G\J	16dd\L	.
.	16ee-\JJ	.
8D\L	8ff'\L)	.
8Bn\	8ff'\J	.
8G\	(8ff\L	.
8B\J)	16ee-\L	.
.	16ff\JJ	.
=162	=162	=162
*^	*	*
1c	2.E-\	12gg\L	.
.	.	12ccc\	.
.	.	12bb-\J	.
.	.	12aa-\L	.
.	.	12gg\	.
.	.	12ff\J	.
.	.	12ee-\L	.
.	.	12dd\	.
.	.	12cc\J	.
.	4En\	12b-/L	.
.	.	12a-/	.
.	.	12g/J	.
*v	*v	*	*
=163	=163	=163
4F\ 4c\	4a-/)	.
4F\	4cc\ 4ff\ 4aa-\	.
4G\	4cc\ 4ee-\ 4gg\	.
4GG/	4d/ 4f/ 4bn/	.
=164	=164	=164
4C/	4e-/ 4cc/	.
4r	(12gg\L	.
.	12ff#\	.
.	12aa-\J	.
4r	12gg\L	.
.	12ffn\	.
.	12ee-\J	.
4c\ 4e-\	12dd\L	.
.	12ee-\	.
.	12cc\J	.
=165	=165	=165
4G\ 4d\	4bn\)	.
4r	(12ff\L	.
.	12een\	.
.	12gg\J	.
4r	12ff\L	.
.	12ee-\	.
.	12dd\J	.
4G\ 4d\ 4f\	12cc\L	.
.	12b\	.
.	12dd\J	.
=166	=166	=166
4c\ 4e-\	4cc\)	.
4r	(12gg\L	.
.	12ff\	.
.	12aa-\J	.
4r	12gg\L	.
.	12ffn\	.
.	12ee-\J	.
4C\ 4E-\	12dd\L	.
.	12ee-\	.
.	12cc\J	.
=167	=167	=167
1GG 1BBn 1D 1F	12aa-\L	.
.	12gg\	.
.	12ff\J	.
.	12ee-\L	.
.	12dd\	.
.	12cc\J	.
.	12bn/L	.
.	12a-/	.
.	12g/J	.
.	12f/L	.
.	12e-/)	.
.	12d/J	.
=168:|!	=168:|!	=168:|!
*>C	*>C	*>C
2CC/ 2C/	4c/	.
.	4r	.
4EE-'/ 4E-'/	2r	.
4GG'/ 4G'/	.	.
=169	=169	=169
4C'\ 4c'\	2cc\	.
4E-'\ 4e-'\	.	.
2r	4ee-'\	.
.	4gg'\	.
=170	=170	=170
2AAA-/ 2AA-/	4ccc'\	.
.	4eee-'\	.
4CC'/ 4C'/	2r	.
4EE-'/ 4E-'/	.	.
=171	=171	=171
4AA-'\ 4A-'\	2a-/	.
4C'\ 4c'\	.	.
2r	4cc'\	.
.	4ee-'\	.
=172	=172	=172
2FFF#/ 2FF#/	4aan'\	.
.	4ccc'\	.
4AAAn'/ 4AAn'/	4r	.
4CC'/ 4C'/	(12ccc\L	.
.	12eee-\	.
.	12ccc\J	.
=173	=173	=173
4FF#'/ 4F#'/	12aan\L	.
.	12ccc\	.
.	12aa\J	.
4AAn'\ 4An'\	12ff#\L	.
.	12aa\	.
.	12ff#\J	.
4C'\ 4c'\	12ee-\L	.
.	12ff#\	.
.	12ee-\J	.
4E-'\ 4e-'\	12cc\L	.
.	12ee-\	.
.	12cc\J	.
=174	=174	=174
(12G\L	4g/)	.
12c\	.	.
12e-\J	.	.
12G\L	(2gg\	.
12c\	.	.
12e-\J	.	.
12G\L	.	.
12c\	.	.
12e-\J	.	.
12G\L	16ffn\LL	.
.	16ee-\	.
12c\	.	.
.	16dd\	.
12e-\J	.	.
.	16cc\JJ)	.
=175	=175	=175
12G\L	1dd	.
12Bn\	.	.
12f\J	.	.
12G\L	.	.
12B\	.	.
12f\J	.	.
12G\L	.	.
12B\	.	.
12f\J	.	.
12G\L	.	.
12B\	.	.
12f\J)	.	.
=176	=176	=176
.	16ccQ/LL	.
.	16ddQ/JJ	.
4c\	12r	.
.	(12cc\L	p
.	12ccc\J)	.
(4Bn\	12r	.
.	(12bn\L	.
.	12bb-\J)	.
4c\	12r	.
.	(12cc\L	.
.	12ccc\J)	f
4G\	12r	.
.	(12g\L	.
.	12gg\J)	.
=177	=177	=177
4A-\	12r	.
.	(12a-\L	p
.	12aa-\J)	.
4G\	12r	.
.	(12g\L	.
.	12gg\J)	.
4A-\	12r	.
.	(12a-\L	.
.	12aa-\J)	f
4E-\	12r	.
.	12e-\L	.
.	12ee-\J	.
=178	=178	=178
4F\	12r	.
.	(12f\L	p
.	12ff\J)	.
4F#\	12r	.
.	(12f#\L	.
.	12ff#\J)	.
4G\)	12r	.
.	(12g\L	.
.	12gg\J)	.
4GG/	12r	.
.	(12G/L	.
.	12g/J)	.
=179	=179	=179
(4C/	12r	.
.	(12c/L	.
.	12cc/J)	.
4BBn/	12r	.
.	(12Bn/L	.
.	12bn/J)	.
4C/	12r	.
.	(12c/L	.
.	12cc/J)	f
4GG/	12r	.
.	(12G/L	.
.	12g/J)	.
=180	=180	=180
4AA-/	12r	.
.	12A-/L	p
.	12a-/J	.
4GG/	12r	.
.	12G/L	.
.	12g/J	.
4AA-/	12r	.
.	12A-/L	.
.	12a-/J	.
4EE-/	12r	.
*	*clefF4	*clefF4
.	(12E-\L	f
.	12e-\J)	.
=181	=181	=181
4FF/)	12r	.
.	(12F\L	p
.	12f\J)	.
4FF#/	12r	.
.	(12F#\L	.
.	(12f#\J)	.
4GG/	12r	.
.	12G\L	.
.	12g\J)	.
4GGG/	12r	.
.	(12GG\L	.
.	12G\J)	.
=182	=182	=182
2.CC/	12r	.
.	(12C\L	.
.	12E-\J	.
.	12G\L	.
.	12E-\	.
.	12C\J	.
.	12G\L	.
.	12E-\	.
.	12C\J	.
4GGG/	12Fn\L	.
.	12D\	.
.	12BBn\J)	.
=183	=183	=183
2.CC/	12r	.
.	(12GG/L	.
.	12C/J	.
.	12E-/L	.
.	12C/	.
.	12GG/J	.
.	12E-/L	.
.	12C/	.
.	12GG/J	.
4GGG/	12D/L	.
.	12BBn/	.
.	12GG/J)	.
=184	=184	=184
4CC/	4C/	.
4r	4r	.
4CC/ 4EE-/	4GG/ 4C/	pp
4r	4r	.
=185	=185	=185
2CC/ 2EE-/	2GG/ 2C/	.
2r	2r	.
==	==	==
*-	*-	*-
!!!SMS: Alte Mozart-Ausgabe, Band 20, Breitkopf &amp; H&auml;rtel 1877-1883.
!!!ONB: Stich und Druck von Breitkopf &amp; H&auml;rtel in Leipzig
!!!ONB: Ausgegeben 1878
!!!ENC: Craig Stuart Sapp
!!!END: 2009/09/29/
!!!EEV: 2011/06/30/ (BA fixed alignment problem in measures 184-5)
!!!title: @{OTL}, K 457, @{OMV}
!!!hum2abc: --no-tempo -s 0.71 --spacing 1.9 -p "%gracespace  0 6.0 12.0"
